X:1
T:Pas de Trois, VI. Coda
T:Pas de Trois, VI. Coda
T:Swan Lake, Piano Arrangement for 3 hands
T:Hinci
C:Hinci
%%score { ( 1 4 ) | 2 | 3 }
L:1/8
Q:1/4=156
M:4/4
K:Bb
V:1 treble nm="Piano" snm="Pno."
V:4 treble 
V:2 bass 
V:3 treble 
V:1
"^Allgero vivace." z8 | z2!mp! ([Dd]2 [Cc]2 [B,B]2 | [A,A]2)"_cresc." ([Ee]2 [Dd]2 [Cc]2 | %3
 [=B,=B]2) ([Ff]2 [Ee]2 [Dd]2 | [^C^c]2) ([Bb]2 [Aa]2 [Gg]2 | %5
!f! [^F^f])f ([^ed'^e'][fa^f']) ([ed'^e'][faf'])([ed'e'][faf']) | %6
 ([^fc'^f'][gbg'])([faf'][gbg']) ([ac'a'][gbg'][=fa=f'][ege']) | %7
 ([^cb^c'][dfd'])([cbc'][dfd']) ([cbc'][dfd'])([cbc'][dfd']) | %8
 ([=Ba=b][cec'])([Aca][_Bd_b]) ([cec'][dfd'][ege'][faf']) | [eg][dfbd']!mp! ([Dd]2 [Cc]2 [B,B]2 | %10
 [A,A]2)"_cresc." ([Ee]2 [Dd]2 [Cc]2 | [=B,=B]2) ([Ff]2 [Ee]2 [Dd]2 | [^C^c]2) ([Bb]2 [Aa]2 [Gg]2 | %13
!f! [^F^f])f ([^ed'^e'][fa^f']) ([ed'^e'][faf'])([ed'e'][faf']) | %14
 ([^fc'^f'][gbg'])([faf'][gbg']) ([ac'a'][gbg'][=fa=f'][ege']) | %15
 ([^cb^c'][dfd'])([cbc'][dfd']) ([cbc'][dfd'])([cbc'][dfd']) | %16
 ([=Ba=b][cec'e'])([cac'][d_bd']) ([ec'e'][fd'f'][ge'g'][af'a']) | [bd'b'] z z [Bb] z [Aa] z [Gg] | %18
 z [^F^f] z [Aa] ^c'=bc'a | (d'a) z [Bb] z [Aa] z [Gg] | z [^F^f] z [Aa] ^c'=bc'a | %21
 [^fad']2 !//-!d d' !//-!=e =e' !//-!f _g' | [g=bd'g']2 !//-!G g !//-!A a !//-!=B b | %23
 ([c=egc'][Gg]) !//-!c c' !//-!d d' !//-!e =e' | [faf']2 !//-!F f !//-!G g !//-!A a | %25
 [Bcfb]2 !//-![^fb] ^f' !//-!g g' !//-![ad'] a' | %26
 !//-!b b' !//-![^fb] ^f' !//-!g g' !//-![ad'] a' | %27
 !//-!b b' !//-![^cf] ^c' !//-!d d' !//-![=ea] =e' | %28
 !//-!f f' !//-![^cf] ^c' !//-!d d' !//-![=ea] =e' | !//-!f f' !//-!d d' !//-!=e =e' !//-!^f _g' | %30
 [g=bd'g']2 !//-!G g !//-!A a !//-!=B b | ([c=egc'][Gg]) !//-!c c' !//-!d d' !//-!e =e' | %32
 [faf']2 !//-!c c' !//-!d d' !//-!=e =e' |!mp!"_cresc." f'/=e'/f' f'/e'/f' f'/e'/f' f'/e'/f' | %34
 f'/=e'/f' f'/e'/f' f'/e'/f' f'/e'/f' | %35
 !//-![^fd'] ^f' !//-![gd'] g' !//-![=ec'] =e' !//-![=fc'] =f' | %36
 !//-!d d' !//-![ec'] e' !//-![gc'] g' !//-![af'] a' |!fff! [bd'f'b']2 [dd']2 [cc']2 [Bb]2 | %38
 [Aa]2 [ee']2 [dd']2 [cc']2 | [=B=b]2 [ff']2 [ee']2 [dd']2 | [^c^c']2 [bb']2 [aa']2 [gg']2 | %41
 [^f^f']f!f! ([^ed'^e'][faf']) ([ed'^e'][faf'])([ed'e'][faf']) | %42
 ([^fc'^f'][gbg'])([faf'][gbg']) ([ac'a'][gbg'][=fa=f'][ege']) | %43
 ([^cb^c'][dfd'])([cbc'][dfd']) ([cbc'][dfd'])([cbc'][dfd']) | %44
 ([=Ba=b][cec'])([Aca][_Bd_b])!<(! ([cec'][dfd'][ege'][faf'])!<)! | %45
!fff! [gb]f' [dd']2 [cc']2 [Bb]2 | [Aa]2 [ee']2 [dd']2 [cc']2 | [=B=b]2 [ff']2 [ee']2 [dd']2 | %48
 [^c^c']2 [bb']2 [aa']2 [gg']2 | [^f^f']f!f! ([^ed'^e'][faf']) ([ed'^e'][faf'])([ed'e'][faf']) | %50
 ([^fc'^f'][gbg'])([faf'][gbg']) ([ac'a'][gbg'][=fa=f'][ege']) | %51
 ([^cb^c'][dfd'])([cbc'][dfd']) ([cbc'][dfd'])([cbc'][dfd']) | %52
 ([=Ba=b][cec'])([cac'][d_bd'])!<(! ([ec'e'][fd'f'][ge'g'][af'a'])!<)! | %53
!ff! (b/a/b) (b/a/b) (b/a/b) (b/a/b) | ([bd'f']/f/g/a/) (b/c'/d'/e'/) (f'/e'/d'/c'/ b/a/g/f/) | %55
 (b/a/b) (b/a/b) (b/a/b) (b/a/b) | ([bd'f']/f/g/a/) (b/c'/d'/e'/) (f'/e'/d'/c'/ b/a/g/f/) | %57
 bd'/d'/ c'f'/f'/ bd'/d'/ c'f'/f'/ | bd'/d'/ c'f'/f'/ bd'/d'/ c'f'/f'/ | %59
 [Bdb][cac'][dbd'][cac'] [dbd'][cac'][dbd'][cac'] | %60
 [dbd'][cac'][dbd'][cac'] [dbd'][cac'][dbd'][cac'] |!<(! [Bdfb]2 [Bdfb]2 [Bdfb]2 [Bdfb]2 | %62
 [Bdfb]2 [Bdfb]2 [Bdfb]2 [Bdfb]2 | %63
[Q:1/4=112]"_riten." [Bdfb]2[Q:1/4=82] [dbd']2!<)!!fff![Q:1/4=60] [Bdfb]4 |] %64
V:2
!p! [B,,,B,,][B,DF][F,,F,][B,DF] [B,,,B,,][B,DF][F,,F,][B,DF] | %1
 [B,,,B,,][B,DF][F,,F,][B,DF] [B,,,B,,][B,DF][F,,F,][B,DF] | %2
 [C,,C,][A,EF][F,,F,][A,EF] [C,,C,][A,EF][F,,F,][A,EF] | %3
"_cresc." [D,,D,][=B,F][G,,G,][B,F] [D,,D,][B,F][G,,G,][B,F] | %4
 [=E,,=E,][B,GB][A,,A,][B,GB] [_E,,_E,][A,GA][A,,A,][^C^c] | %5
!f! [D,,D,^F,][D,F,][A,,A,] z [D,,D,]2 [A,,A,] z | [E,,E,]2 [E,,E,] z [E,,E,]2 [E,,E,] z | %7
 [F,,F,]2 [F,,F,] z [F,,F,]2 [F,,F,] z | [F,,F,]2 [F,,F,] z [F,,F,]2 [F,,F,] z | %9
 [B,,,B,,][B,DF]!p![F,,F,][B,DF] [B,,,B,,][B,DF][F,,F,][B,DF] | %10
 [C,,C,][A,EF][F,,F,][A,EF] [C,,C,][A,EF][F,,F,][A,EF] | %11
"_cresc." [D,,D,][=B,F][G,,G,][B,F] [D,,D,][B,F][G,,G,][B,F] | %12
 [=E,,=E,][B,GB][A,,A,][B,GB] [_E,,_E,][A,GA][A,,A,][^C^c] | %13
!f! [D,,D,^F,][D,F,][A,,A,] z [D,,D,]2 [A,,A,] z | [E,,E,]2 [E,,E,] z [E,,E,]2 [E,,E,] z | %15
 [F,,F,]2 [F,,F,] z [F,,F,]2 [F,,F,] z | [F,,F,]2 [F,,F,] z [F,,F,]2 [F,,F,] z | %17
 [B,,,B,,] z!ff! [B,,B,]2 [A,,A,]2 [G,,G,]2 | [^F,,^F,]2 [A,,A,]2!f! !//-![A,,D,]2 [D,A,]2 | %19
!ff! [D,^F,D]2 [B,,B,]2 [A,,A,]2 [G,,G,]2 | [^F,,^F,]2 [A,,A,]2 !//-![A,,D,]2 [D,A,]2 | %21
 [D,^F,D]2 [D,D][C,C] [=B,,=B,][C,C][B,,B,][A,,A,] | %22
 [G,,=B,,D,G,][A,,A,][G,,G,][F,,F,] [=E,,=E,][F,,F,][E,,E,][D,,D,] | %23
 [C,,=E,,G,,C,]2 [C,C][B,,B,] [A,,A,][B,,B,][A,,A,][G,,G,] | %24
 [F,,A,,F,][G,,G,][F,,F,][E,,E,] [D,,D,][E,,E,][D,,D,][C,,C,] | %25
 [B,,,C,,F,,B,,]2 [D,,^F,,D,]2 [=E,,G,,=E,]2 [F,,A,,^F,]2 | %26
 [G,,B,,G,]2 [D,,^F,,D,]2 [=E,,G,,=E,]2 [F,,A,,^F,]2 | %27
 [G,,B,,G,]2 [A,,^C,A,]2 [=B,,D,=B,]2 [C,=E,^C]2 | [D,F,D]2 [A,,^C,A,]2 [=B,,D,=B,]2 [C,=E,^C]2 | %29
 [D,F,D]2 [D,D][C,C] [=B,,=B,][C,C][B,,B,][A,,A,] | %30
 [G,,=B,,D,G,][A,,A,][G,,G,][F,,F,] [=E,,=E,][F,,F,][E,,E,][D,,D,] | %31
 [C,,=E,,G,,C,]2 [C,C][B,,B,] [A,,A,][B,,B,][A,,A,][G,,G,] | %32
 [F,,A,,F,][A,,A,][C,C][B,,B,] [A,,A,][B,,B,][A,,A,][G,,G,] | !//-![A,,F,]2 A,2 !//-![B,,G,]2 B,2 | %34
 !//-![=B,,^G,]2 =B,2 !//-![C,A,]2 C2 | [D,,^F,,D,]2 G,,2 [C,,=E,,C,]2 =F,,2 | %36
 [=B,,,D,,=B,,]2 [C,,E,,C,]2 [E,,G,,E,]2 [F,,A,,F,]2 | %37
!f! [B,,,B,,]!arpeggio![D,F,D][B,,,B,,][B,,D,F,B,] [B,,,B,,][B,,D,F,B,][B,,,B,,][B,,D,F,B,] | %38
 [C,,C,][A,,E,F,A,][C,,C,][A,,E,F,A,] [C,,C,][A,,E,F,A,][C,,C,][A,,E,F,A,] | %39
 [D,,D,][=B,,D,F,=B,][D,,D,][B,,D,F,B,] [D,,D,][B,,D,F,B,][D,,D,][B,,D,F,B,] | %40
 [A,,A,][^C=EA^c][A,,A,][CEc] [A,,A,][CEAc][A,,A,][CEAc] | %41
 [D,,D,^F,][D,F,][A,,A,] z [D,,D,]2 [A,,A,] z | [E,,E,]2 [E,,E,] z [E,,E,]2 [E,,E,] z | %43
 [F,,F,]2 [F,,F,] z [F,,F,]2 [F,,F,] z | [F,,F,]2 [F,,F,] z !///-!F,,2 F,2 | %45
!ff! [B,,,B,,][D,F,B,][B,,,B,,][B,,D,F,B,] [B,,,B,,][B,,D,F,B,][B,,,B,,][B,,D,F,B,] | %46
 [C,,C,][A,,E,F,A,][C,,C,][A,,E,F,A,] [C,,C,][A,,E,F,A,][C,,C,][A,,E,F,A,] | %47
 [D,,D,][=B,,D,F,=B,][D,,D,][B,,D,F,B,] [D,,D,][B,,D,F,B,][D,,D,][B,,D,F,B,] | %48
 [A,,A,][^C=EA^c][A,,A,][CEc] [A,,A,][CEAc][A,,A,][CEAc] | %49
 [D,,D,^F,][D,F,][A,,A,] z [D,,D,]2 [A,,A,] z | [E,,E,]2 [E,,E,] z [E,,E,]2 [E,,E,] z | %51
 [F,,F,]2 [F,,F,] z [F,,F,]2 [F,,F,] z | [F,,F,]2 [F,,F,] z !///-!F,,2 F,2 | %53
 [D,,B,,D,]2 [D,,B,,D,]2 [E,,B,,E,]2 [=E,,B,,=E,]2 | [F,,B,,D,F,]2 z2 [F,,A,,D,F,]2 z2 | %55
 [D,,B,,D,]2 [D,,B,,D,]2 [E,,B,,E,]2 [=E,,B,,=E,]2 | [F,,B,,D,F,]2 z2 [F,,A,,D,F,]2 z2 | %57
 [B,,,B,,]2 [F,,C,F,]2 [B,,,B,,]2 [F,,C,F,]2 | [B,,,B,,]2 [F,,C,F,]2 [B,,,B,,]2 [F,,C,F,]2 | %59
 [B,,D,F,][F,,A,,F,][B,,D,F,][F,,A,,F,] [B,,D,F,][F,,A,,F,][B,,D,F,][F,,A,,F,] | %60
 [B,,D,F,][F,,A,,F,][B,,D,F,][F,,A,,F,] [B,,D,F,][F,,A,,F,][B,,D,F,][F,,A,,F,] | %61
 B,,2 [B,,F,B,]2 [F,,B,,F,]2 [D,,B,,D,]2 | [B,,,B,,]2 [B,,F,B,]2 [F,,B,,F,]2 [D,,B,,D,]2 | %63
 [B,,,B,,]2 [B,B]2!f! !////-!B,,,2 B,,2 |] %64
V:3
 z8 | z8 | z8 | z8 | z8 | z2!f! (dA) (dA)(dA) | (cB)(AB) (cBAG) | (BF)(BF) (BF)(BF) | %8
 (AE)(CD) (EFGA) | (GF) z2 z4 | z8 | z8 | z8 | z2 (dA) (dA)(dA) | (cB)(AB) (cBAG) | %15
 (BF)(BF) (BF)(BF) | (AE)(CD) (EFGA) | [B,B] z z2 z4 | z4 ^c'/c'/=b/b/ c'/c'/a/a/ | z2 z2 z4 | %20
 z4 ^c'/c'/=b/b/ c'/c'/a/a/ | z8 | z8 | z8 | z8 | z2 [B,B]2 [G,G]2 [Dd]2 | %26
 [B,B]2 [B,B]2 [G,G]2 [Dd]2 | [B,B]2 [Ff]2 [Dd]2 [Aa]2 | [Ff]2 [Ff]2 [Dd]2 [Aa]2 | [Ff]2 z2 z4 | %30
 z8 | z8 | z8 | f/=e/f f/e/f f/e/f f/e/f | f/=e/f f/e/f f/e/f f/e/f | %35
 [^F,D^F]2 [G,DG]2 [=E,C=E]2 [=F,C=F]2 | [D_A]2 [E,EG]2 [G,B,G]2 [A,F]2 | [B,DF][F,B,F] z2 z4 | %38
 z8 | z8 | z8 | z2!f! (!/!d!/!A) (!/!d!/!A)(!/!d!/!A) | (!/!c!/!B)(!/!A!/!B) (!/!c!/!B!/!A!/!G) | %43
 (!/!B!/!F)(!/!B!/!F) (!/!B!/!F)(!/!B!/!F) | (!/!A!/!E)(!/!C!/!D) (!/!E!/!F!/!G!/!A) | BA z2 z4 | %46
 z8 | z8 | z8 | z2!f! (!/!d!/!A) (!/!d!/!A)(!/!d!/!A) | (!/!c!/!B)(!/!A!/!B) (!/!c!/!B!/!A!/!G) | %51
 (!/!B!/!F)(!/!B!/!F) (!/!B!/!F)(!/!B!/!F) | (!/!A!/!E)(!/!C!/!D) (!/!E!/!F!/!G!/!A) | %53
 [Bb]2 [_AB_a]2 [GBg]2 [_GB_g]2 | [B,DFB]2 z2 [CFAc]2 z2 | [Bb]2 [_AB_a]2 [GBg]2 [_GB_g]2 | %56
 [B,DFB]2 z2 [CFAc]2 z2 | Bdcf Bdcf | Bdcf Bdcf | %59
 z/!f! [Bdb][cac'][dbd'][cac'][dbd'][cac'][dbd'][cac']/- | %60
 [cac']/[dbd'][cac'][dbd'][cac'][dbd'][cac'][dbd'][cac']/ | [B,DF]2 [B,DF]2 [B,DF]2 [B,DF]2 | %62
 [B,DF]2 [B,DF]2 [B,DF]2 [B,DF]2 | [B,DF]2 [DB]2 [B,DF]4 |] %64
V:4
 x8 | x8 | x8 | x8 | x8 | x8 | x8 | x8 | x8 | x8 | x8 | x8 | x8 | x8 | x8 | x8 | x8 | x8 | %18
 z4 [ga]4 | [^fa]2 z2 z4 | z4 [ga]4 | x8 | x8 | x8 | x8 | x8 | x8 | x8 | x8 | x8 | x8 | x8 | x8 | %33
 [fa]4 [gb]4 | [^g=b]4 [ac']4 | x8 | x8 | x8 | x8 | x8 | x8 | x8 | x8 | x8 | x8 | x8 | x8 | x8 | %48
 x8 | x8 | x8 | x8 | x8 | f'2 d'2 e'2 =e'2 | x8 | f'2 d'2 e'2 =e'2 | x8 | [Bd]2 [cf]2 [Bd]2 [cf]2 | %58
 [Bd]2 [cf]2 [Bd]2 [cf]2 | x8 | x8 | x8 | x8 | x8 |] %64

